src/asset/image/prosentTegn.svg

<svg width="7" height="7" viewBox="0 0 7 7" fill="none" xmlns="http://www.w3.org/2000/svg">
<rect width="7" height="7" fill="white"/>
<path d="M1.78459 4.264C1.61659 4.264 1.46026 4.23133 1.31559 4.166C1.17092 4.10067 1.04492 4.005 0.93759 3.879C0.834923 3.753 0.753257 3.60133 0.69259 3.424C0.63659 3.242 0.60859 3.03667 0.60859 2.808C0.60859 2.57933 0.63659 2.37633 0.69259 2.199C0.753257 2.02167 0.834923 1.87233 0.93759 1.751C1.04492 1.625 1.17092 1.52933 1.31559 1.464C1.46026 1.39867 1.61659 1.366 1.78459 1.366C1.95259 1.366 2.10659 1.39867 2.24659 1.464C2.39126 1.52933 2.51492 1.625 2.61759 1.751C2.72492 1.87233 2.80892 2.02167 2.86959 2.199C2.93026 2.37633 2.96059 2.57933 2.96059 2.808C2.96059 3.03667 2.93026 3.242 2.86959 3.424C2.80892 3.60133 2.72492 3.753 2.61759 3.879C2.51492 4.005 2.39126 4.10067 2.24659 4.166C2.10659 4.23133 1.95259 4.264 1.78459 4.264ZM1.78459 3.606C1.87792 3.606 1.95959 3.55 2.02959 3.438C2.09959 3.326 2.13459 3.116 2.13459 2.808C2.13459 2.654 2.12526 2.528 2.10659 2.43C2.08792 2.32733 2.06226 2.24567 2.02959 2.185C1.99692 2.12433 1.95959 2.08233 1.91759 2.059C1.87559 2.03567 1.83126 2.024 1.78459 2.024C1.73792 2.024 1.69359 2.03567 1.65159 2.059C1.60959 2.08233 1.57226 2.12433 1.53959 2.185C1.50692 2.24567 1.48126 2.32733 1.46259 2.43C1.44392 2.528 1.43459 2.654 1.43459 2.808C1.43459 3.116 1.46959 3.326 1.53959 3.438C1.60959 3.55 1.69126 3.606 1.78459 3.606ZM1.95259 6.084L4.38859 1.366H5.06059L2.62459 6.084H1.95259ZM5.21459 6.084C5.04659 6.084 4.89026 6.05133 4.74559 5.986C4.60092 5.92067 4.47492 5.825 4.36759 5.699C4.26492 5.573 4.18326 5.42133 4.12259 5.244C4.06659 5.062 4.03859 4.85667 4.03859 4.628C4.03859 4.39933 4.06659 4.19633 4.12259 4.019C4.18326 3.84167 4.26492 3.69233 4.36759 3.571C4.47492 3.445 4.60092 3.34933 4.74559 3.284C4.89026 3.21867 5.04659 3.186 5.21459 3.186C5.38259 3.186 5.53659 3.21867 5.67659 3.284C5.82126 3.34933 5.94492 3.445 6.04759 3.571C6.15492 3.69233 6.23892 3.84167 6.29959 4.019C6.36026 4.19633 6.39059 4.39933 6.39059 4.628C6.39059 4.85667 6.36026 5.062 6.29959 5.244C6.23892 5.42133 6.15492 5.573 6.04759 5.699C5.94492 5.825 5.82126 5.92067 5.67659 5.986C5.53659 6.05133 5.38259 6.084 5.21459 6.084ZM5.21459 5.426C5.30792 5.426 5.38959 5.37 5.45959 5.258C5.52959 5.146 5.56459 4.936 5.56459 4.628C5.56459 4.474 5.55526 4.348 5.53659 4.25C5.51792 4.14733 5.49226 4.06567 5.45959 4.005C5.42692 3.94433 5.38959 3.90233 5.34759 3.879C5.30559 3.85567 5.26126 3.844 5.21459 3.844C5.16792 3.844 5.12359 3.85567 5.08159 3.879C5.03959 3.90233 5.00226 3.94433 4.96959 4.005C4.93692 4.06567 4.91126 4.14733 4.89259 4.25C4.87392 4.348 4.86459 4.474 4.86459 4.628C4.86459 4.936 4.89959 5.146 4.96959 5.258C5.03959 5.37 5.12126 5.426 5.21459 5.426Z" fill="#3E3832"/>
</svg>

<svg width="7" height="7" viewBox="0 0 7 7" fill="none" xmlns="http://www.w3.org/2000/svg"><path fill="#fff" d="M0 0h7v7H0z"/><path d="M1.785 4.264a1.072 1.072 0 01-.847-.385 1.461 1.461 0 01-.245-.455 2.092 2.092 0 01-.084-.616c0-.229.028-.432.084-.609.06-.177.142-.327.245-.448a1.072 1.072 0 01.847-.385c.168 0 .322.033.462.098.144.065.268.161.37.287.108.121.192.27.253.448.06.177.09.38.09.609 0 .229-.03.434-.09.616-.061.177-.145.329-.252.455a1.009 1.009 0 01-.371.287c-.14.065-.294.098-.462.098zm0-.658c.093 0 .175-.056.245-.168.07-.112.105-.322.105-.63 0-.154-.01-.28-.028-.378a.843.843 0 00-.077-.245.301.301 0 00-.112-.126.27.27 0 00-.266 0 .301.301 0 00-.112.126.843.843 0 00-.077.245 2.084 2.084 0 00-.028.378c0 .308.035.518.105.63.07.112.151.168.245.168zm.168 2.478l2.436-4.718h.672L2.625 6.084h-.672zm3.262 0a1.072 1.072 0 01-.847-.385 1.461 1.461 0 01-.245-.455 2.092 2.092 0 01-.084-.616c0-.229.028-.432.084-.609.06-.177.142-.327.245-.448a1.072 1.072 0 01.847-.385c.168 0 .322.033.462.098.144.065.268.161.37.287.108.121.192.27.253.448.06.177.09.38.09.609 0 .229-.03.434-.09.616-.061.177-.145.329-.252.455a1.009 1.009 0 01-.371.287c-.14.065-.294.098-.462.098zm0-.658c.093 0 .175-.056.245-.168.07-.112.105-.322.105-.63 0-.154-.01-.28-.028-.378a.843.843 0 00-.077-.245.301.301 0 00-.112-.126.27.27 0 00-.266 0 .301.301 0 00-.112.126.843.843 0 00-.077.245 2.084 2.084 0 00-.028.378c0 .308.035.518.105.63.07.112.151.168.245.168z" fill="#3E3832"/></svg>
